X: 675
T: The bonnie boy
C: anon.
O: Ireland
B: Francis O'Neill: "The Dance Music of Ireland" (1907) no. 675
R: Reel
Z: Transcribed by Frank Nordberg - http://www.musicaviva.com
F: http://www.musicaviva.com/abc/tunes/ireland/oneill-1001/oneill-1001-067
5.abc
M: C|
L: 1/8
K: A
(ed)|cBAa (3(fga) ec|dfec B2(Bd)|cBAa (3(fga) ec|dfec A2(Ad)|cBAa (3(fga)
 (ec)|
dfec B2(Bd)|cefg agbg|afed cAAd||(3(cBA) (ec) fAeA|(3(cBA) (ec) B2(Bd)|
(3(cBA) (eA) fAeA|dfed cAAd|(3(cBA) (eA) fAeA|dfec B2(Bd)|cefg agbg|afec
A2|]
W:
W:
W: From Musica Viva - http://www.musicaviva.com
W: the Internet center for free sheet music downloads.


